X:1
T: The MacDonald's March
C:
R:Reel
Q: 232
K:D
M:4/4
L:1/8
eA|:c2 Bc A2 A2|cA ce a2 ef|g2 ae g2 de|gd BA GA BA|
c2 Bc A2 A2|cA ce a2 ef|gd BA GA Bd|1c2 A2 A2 eA:|2c2 A2 A2 e2|
|:AA a2 g2 ea|ge fe a2 ef|g2 ae g2 de|gd BA GA BG|
AA a2 ge a2|ge fe a2 ef|gd BA GA Bd|1c2 A2 A2 e2|2c2 A2 A2 E2|
|:AB cd ea ec|AB cd ec A2|GA Bc dg dB|GA Bc eB G2|
AB cd ea ea|ge fe a2 ef|gd BA GA Bd|1c2 A2 A2 E2:|2c2 A2 A2||
